X: 1
T:Halling
R:Halling
O:Sweden
M:2/4
C:e. Mats Berglund
K:A
Aceg e^de=d|B2Bd c2A2|Aceg e^de=d|B2Bc A4:|
|:a4 f3a|fgbg e2c2|a4 f3a|fgbg e4:|
